!!!OTL: "Die Henne" ACH MEIN HENNCHEN
!!!ARE: Europa, Mitteleuropa, Oesterreich
!!!SCT: Z1362
!!!YEM: Copyright 1995, estate of Helmut Schaffrath.
**kern
*ICvox
*Ivox
*M2/4
*k[f#]
*G:
{8.g
16a
16g
16f#
16e
16d
=1
16e
16g
16cc
16ee
4dd
=2
16e
16g
16cc
16ee
4dd}
=3
{16dd
16cc
16b
16a
16cc
16b
16a
16g
=4
16b
16a
16g
16f#
4g}
=5
{8.dd
16ee
8.dd
16ee
=6
16dd
16cc
16b
16a
8b
8g}
=7
{8.dd
16ee
8.dd
16ee
=8
16dd
16cc
16b
16a
8b
8g}
=9
{8.g
16a
16g
16f#
16e
16d
=10
16e
16g
16cc
16ee
4dd
=11
16e
16g
16cc
16ee
4dd}
=12
{16dd
16cc
16b
16a
16cc
16b
16a
16g
=13
16b
16a
16g
16f#
4g}
==
!!!AGN: Kinder - Lied
!!!ONB: ESAC (Essen Associative Code) Database: ZUCCAL
!!!AMT: simple duple
!!!AIN: vox
!!!EED: Helmut Schaffrath
!!!EEV: 1.0
*-
